X: 1
T: the Hop Ground    [A]
B: Barnes p.53 (dated 1794)
O: Preston 1794
Z: 1998 by John Chambers <jc:trillian.mit.edu>
M: 6/8
L: 1/8
K: A
|: "A"EAA cBA | "D"dcB "A"cBA |\
[1,3 "A"EAA "F#m"cBA | "Bm"dBB "E7"GAF :|\
[2,4 "A"cde "Bm"dcB | "F#m"cAA "E7"GAF :|
|: "A"ECE "D"FGA | "A"EAA "D"FAA |\
[1,3 "A"ECE "F#m"FGA | "Bm"Bcd "E7"cBA :|\
[2,4 "A"cde "Bm"dcB | "F#m"cAA "E7"GAF :|
